X:3
T:Ballo Francese
Z:Transcrit et/ou corrig par Michel BELLON - 2005-03-12
Z:Pour toute observation mailto:galouvielle@free.fr
M:C|
L:1/8
K:C
V:1
"Primo modo"GFGA BABc | dcde d2cB | A2B2c2d2 |B3AG4 | GFGA BABc |dcde d2cB |
A2B2c2d2 |B3AG4 | G2B2A2G2 | A4A4 | G2AB cBAG | A4A4 | A4A2Bc | 
d3ed2c2 | B2AGA2A2 | G4G4 | G2B2A2G2 | A4A4 | G2AB cBAG | A4A4 |
V:2
D6D2 | F4F4 | C6F2 | D4E4 | D6D2 |F4F4 |
C6F2 | D4E4 | D4F4 | F6C2 | E2F2G2E2 | F6F2 | F4C4 |
F4G4 | D4F4 | E4E4 | D4F4 | F6C2 | E2F2G2E2 | F6F2 |
V:3
B6B2 | A4A4 | A6A2 | B4B4 | B6B2 | A4A4 |
A6A2 | B4B4 | B4d4 | c6A2 | c4e4 | c6c2 | d4A4 |
A4B2A2 | G2B2A2d2 | B4c4 | B4d4 | c6A2 | c4e4 | c6c2 |
V:4
G,6G,2 | D,6E,2 | F,6D,2 | G,4G,4 | G,6G,2 | D,6E,2 |
F,6D,2 | G,4G,4 | G,4D,2E,2 | F,4F,4 | C,4C,4 | F,6F,2 | D,4F,4 |
D,4G,4 | G,4D,4 | E,4C,4 | G,4D,2E,2 | F,4F,4 | C,4C,4 | F,6F,2 | 
V:1
A4A2Bc | d3ed2c2 |B2AGA2A2 | G4G4 || "Secondo modo" GFGA BABc | dcde d2cB | A2B2c2d2 |
B3AG4 | GFGA BABc | dcde d2cB | A2B2c2d2 | B3AG4 | G2B2A2G2 | A4A4 |
G2AB cBAG | A4A4 | A4A2Bc | d3ed2c2 | B2AGA2A2 | G4G4 | G2B2A2G2 |
A4A4 | G2AB cBAG | A4A4 | A4A2Bc | d3ed2c2 |B2AGA2A2 | G4G4 |]
V:2
F4C4 |F6F2 | D8 | D8 || D4D2D2 | F4F2ED | C2G2E2F2 |
D4D2E2 | D4D2D2 | F4F2ED | C2G2E2F2 | D4D2E2 | D2G2F2E2 | F4F2F2 |
D2F2F2C2 | F4F4 | F4E4 | ^F4F4  | G2E2D4 | D4D2E2 | D2G2F2E2 |
F4F2F2 | D2F2F2C2 | F4F4 | F4E4 | ^F4F4 | G2E2D4 | D4D4 |]
V:3
d4A4 | A4 B2A2 | G2B2A4 |B8 || B4B2B2 | A4A2G2 | A2d2c2A2 |
B4B2c2 | B4B2B2 | A4A2G2 |A2d2c2A2 |B4B2c2 | B2G2c2B2 | c2d2c4 |
B2c2A4 |c2d2c4 | c4c4 | A4A2A2 | G2B2A4 | B4B2c2 | B2G2c2B2 |
c2d2c4 | B2c2A4 | c2d2c4 | c4c4 |A4A2A2 | G2B2A4 | B4B4 |]
V:4
D,4F,4 | D,4G,4 | G,4^F,4 | G,8 || G,4G,2G,2 | D,4D,2E,2 | F,2G,2A,2D,2 |
G,4G,2C,2 | G,4G,2G,2 | D,4D,2E,2 | F,2G,2A,2D,2 | G,4G,2C,2 | G,2E,2F,2G,2 | F,2D,2F,4 |
G,2F,2F,4 | F,2D,2F,4 | F,4A,4 | D,4D,4 | E,4^F,4 | G,4G,2C,2 | G,2E,2F,2G,2 | 
F,2D,2F,4 | G,2F,2F,4 | F,2D,2F,4 | F,4A,4 | D,4D,4 | E,4 ^F,4 | G,4G,4 |]
%%footer $D   Galouvielle-MBe 2005 \n-- --
